svg/pill_1_outline.svg

<svg width="48" height="48" viewBox="0 0 48 48" fill="none" xmlns="http://www.w3.org/2000/svg">
<path fill-rule="evenodd" clip-rule="evenodd" d="M23.9997 4.00006C14.0278 4.01286 5.70292 11.342 4.24994 21.0078C3.90344 22.9898 4.99933 22.9998 6.00971 22.9998H41.9993C42.9993 22.9998 43.9636 22.6409 43.7531 20.9275C42.2662 11.2947 33.9503 4.00476 23.9994 3.99976L23.9997 4.00006ZM24.0329 4.5313C33.6739 4.53606 41.7307 11.422 43.1717 20.5191C43.3756 22.1373 43.287 22.4742 41.4744 22.4742H6.60281C4.90513 22.4742 4.56203 22.4672 4.89773 20.5953C6.30571 11.4664 14.3707 4.5435 24.0325 4.5315L24.0329 4.5313ZM6.05512 25C5.00053 25 4.02894 25.29 4.24064 27.033C5.71142 36.6849 14.0363 43.9948 24.0004 43.9998C33.9423 43.9868 42.2472 36.7029 43.7361 27.08C44.1171 24.996 43.0002 25 41.8752 25H6.05512ZM6.61499 25.513H41.4805C43.2891 25.513 43.4315 25.4742 43.1722 27.4239C41.7312 36.5212 33.6416 43.4807 24.0005 43.4857C14.3376 43.4737 6.30569 36.4787 4.89771 27.3499C4.56241 25.4779 5.6353 25.5129 6.61429 25.5129L6.61499 25.513Z" fill="#333333"/>
</svg>

<?xml version="1.0" encoding="UTF-8" standalone="no"?>
<!-- Created with Inkscape (http://www.inkscape.org/) -->
<svg id="svg8" xmlns:rdf="http://www.w3.org/1999/02/22-rdf-syntax-ns#" xmlns="http://www.w3.org/2000/svg" xmlns:osb="http://www.openswatchbook.org/uri/2009/osb" height="48" viewBox="0 0 12.7 12.7" width="48" version="1.1" xmlns:cc="http://creativecommons.org/ns#" xmlns:dc="http://purl.org/dc/elements/1.1/">
 <title id="title4753">UIO-icon</title>
 <metadata id="metadata5">
  <rdf:RDF>
   <cc:Work rdf:about="">
    <dc:format>image/svg+xml</dc:format>
    <dc:type rdf:resource="http://purl.org/dc/dcmitype/StillImage"/>
    <dc:title>UIO-icon</dc:title>
    <dc:creator>
     <cc:Agent>
      <dc:title>Joaquín Urbano</dc:title>
     </cc:Agent>
    </dc:creator>
    <dc:rights>
     <cc:Agent>
      <dc:title>GPL</dc:title>
     </cc:Agent>
    </dc:rights>
   </cc:Work>
  </rdf:RDF>
 </metadata>
 <g id="layer1" fill="#333" transform="translate(0,-284.3)">
  <path id="path878" fill-rule="evenodd" transform="matrix(.26458 0 0 .26458 0 284.3)" d="m24 4c-9.972 0.0128-18.297 7.342-19.75 17.008-0.3465 1.982 0.7494 1.992 1.7598 1.992h35.99c1 0 1.9644-0.35892 1.7539-2.0723-1.487-9.633-9.803-16.923-19.754-16.928zm0.033203 0.53125c9.6411 0.0047652 17.698 6.8908 19.139 15.988 0.20399 1.6182 0.11537 1.9551-1.6973 1.9551h-34.872c-1.6977 0-2.0408-0.006954-1.7051-1.8789 1.408-9.129 9.4731-16.052 19.135-16.064zm-17.978 20.469c-1.0546 0-2.0262 0.29-1.8145 2.033 1.4708 9.652 9.7958 16.962 19.76 16.967 9.942-0.013 18.247-7.297 19.736-16.92 0.381-2.084-0.736-2.08-1.861-2.08zm0.55988 0.51294h34.866c1.8086 0 1.951-0.038785 1.6917 1.9109-1.441 9.0975-9.5308 16.057-19.172 16.062-9.663-0.012-17.695-7.007-19.103-16.136-0.3353-1.872 0.7376-1.837 1.7166-1.837z"/>
 </g>
</svg>
